svg/Pictogram/pictograms-recycle-plastic-4-pebd.svg

<?xml version="1.0" encoding="UTF-8" standalone="no"?>
<!-- Created with Inkscape (http://www.inkscape.org/) --><svg height="89" id="svg2241" inkscape:export-filename="M:\recyclage4.jpg.png" inkscape:export-xdpi="104" inkscape:export-ydpi="104" inkscape:output_extension="org.inkscape.output.svg.inkscape" inkscape:version="0.46" sodipodi:docbase="M:\" sodipodi:docname="pictograms-recycle-plastic-4-PEBD.svg" sodipodi:modified="TRUE" sodipodi:version="0.32" version="1.0" width="89" xmlns="http://www.w3.org/2000/svg" xmlns:cc="http://creativecommons.org/ns#" xmlns:dc="http://purl.org/dc/elements/1.1/" xmlns:inkscape="http://www.inkscape.org/namespaces/inkscape" xmlns:rdf="http://www.w3.org/1999/02/22-rdf-syntax-ns#" xmlns:sodipodi="http://sodipodi.sourceforge.net/DTD/sodipodi-0.dtd" xmlns:svg="http://www.w3.org/2000/svg">
  <metadata>
    <rdf:RDF xmlns:cc="http://web.resource.org/cc/" xmlns:dc="http://purl.org/dc/elements/1.1/" xmlns:rdf="http://www.w3.org/1999/02/22-rdf-syntax-ns#">
      <cc:Work rdf:about="">
        <dc:title></dc:title>
        <dc:description></dc:description>
        <dc:subject>
          <rdf:Bag>
            <rdf:li>unsorted</rdf:li>
          </rdf:Bag>
        </dc:subject>
        <dc:publisher>
          <cc:Agent rdf:about="http://www.openclipart.org/">
            <dc:title>Open Clip Art Library, Source: Open Clip Art Library, Source: Open Clip Art Library</dc:title>
          </cc:Agent>
        </dc:publisher>
        <dc:creator>
          <cc:Agent>
            <dc:title></dc:title>
          </cc:Agent>
        </dc:creator>
        <dc:rights>
          <cc:Agent>
            <dc:title></dc:title>
          </cc:Agent>
        </dc:rights>
        <dc:date></dc:date>
        <dc:format>image/svg+xml</dc:format>
        <dc:type rdf:resource="http://purl.org/dc/dcmitype/StillImage"/>
        <cc:license rdf:resource="http://en.wikipedia.org/wiki/Public_domain"/>
        <dc:language>en</dc:language>
      </cc:Work>
    </rdf:RDF>
  </metadata>
  <defs id="defs2244">
    <inkscape:perspective id="perspective49" inkscape:persp3d-origin="165 : 110 : 1" inkscape:vp_x="0 : 165 : 1" inkscape:vp_y="0 : 1000 : 0" inkscape:vp_z="330 : 165 : 1" sodipodi:type="inkscape:persp3d"/>
  </defs>
  <sodipodi:namedview bordercolor="#666666" borderopacity="1.0" gridtolerance="10.0" guidetolerance="10.0" id="base" inkscape:current-layer="svg2241" inkscape:cx="13.493994" inkscape:cy="18.518882" inkscape:guide-bbox="true" inkscape:pageopacity="0.0" inkscape:pageshadow="2" inkscape:window-height="712" inkscape:window-width="1024" inkscape:window-x="110" inkscape:window-y="54" inkscape:zoom="2.9159426" objecttolerance="10.0" pagecolor="#ffffff" showgrid="false" showguides="true"/>
  <path d="M 52.906569,42.776486 L 50.472909,42.776486 L 50.472909,46.936496 L 46.073138,46.936496 L 46.073138,42.776486 L 37.429446,42.776486 L 37.429446,39.395736 L 45.785414,29.037696 L 50.472909,29.037696 L 50.472909,39.515626 L 52.906569,39.515626 L 52.906569,42.776486 z M 46.073138,39.515626 L 46.073138,33.065826 L 40.882127,39.515626 L 46.073138,39.515626 z" id="text2286" style="font-size:24.55240059px;font-style:normal;font-variant:normal;font-weight:bold;font-stretch:normal;text-align:center;line-height:100%;text-anchor:middle;fill:#000000;fill-opacity:1;stroke:none;stroke-width:1px;stroke-linecap:butt;stroke-linejoin:miter;stroke-opacity:1;font-family:Verdana"/>
  <path d="M 24.733838,76.724066 C 24.733821,77.523316 24.593956,78.304556 24.314242,79.067816 C 24.034494,79.831096 23.634879,80.472476 23.115394,80.991966 C 22.404063,81.695296 21.610826,82.226786 20.735681,82.586436 C 19.86051,82.946096 18.771558,83.125916 17.468821,83.125916 L 14.603575,83.125916 L 14.603575,88.940326 L 10,88.940326 L 10,71.089486 L 17.576717,71.089486 C 18.711616,71.089506 19.668695,71.187406 20.447958,71.383206 C 21.227195,71.579036 21.916532,71.872746 22.51597,72.264356 C 23.235263,72.735916 23.784735,73.339336 24.164386,74.074616 C 24.544004,74.809926 24.733821,75.693076 24.733838,76.724066 L 24.733838,76.724066 z M 19.974413,76.831966 C 19.974401,76.328466 19.838532,75.894876 19.566805,75.531216 C 19.295054,75.167576 18.979358,74.913826 18.619715,74.769946 C 18.140166,74.578146 17.672616,74.472246 17.217063,74.452256 C 16.761492,74.432286 16.154076,74.422296 15.394815,74.422276 L 14.603575,74.422276 L 14.603575,79.769146 L 15.922308,79.769146 C 16.705546,79.769146 17.350925,79.721196 17.858447,79.625276 C 18.365948,79.529386 18.791539,79.337566 19.13522,79.049836 C 19.430924,78.794086 19.644718,78.488386 19.776603,78.132716 C 19.908464,77.777066 19.974401,77.343486 19.974413,76.831966 L 19.974413,76.831966 z M 40.894306,88.940326 L 27.982716,88.940326 L 27.982716,71.089486 L 40.894306,71.089486 L 40.894306,74.542166 L 32.562314,74.542166 L 32.562314,77.623206 L 40.294882,77.623206 L 40.294882,81.075886 L 32.562314,81.075886 L 32.562314,85.487646 L 40.894306,85.487646 L 40.894306,88.940326 z M 60.039902,83.473576 C 60.039885,84.336756 59.866052,85.108016 59.518404,85.787356 C 59.170721,86.466706 58.693181,87.030166 58.085781,87.477736 C 57.382442,88.005226 56.609186,88.380866 55.76601,88.604646 C 54.922808,88.828436 53.853837,88.940326 52.559093,88.940326 L 44.766583,88.940326 L 44.766583,71.089486 L 51.695922,71.089486 C 53.134529,71.089506 54.187516,71.137456 54.854886,71.233346 C 55.522232,71.329276 56.183595,71.541066 56.838979,71.868736 C 57.518311,72.212426 58.023825,72.673976 58.355521,73.253406 C 58.687186,73.832866 58.853027,74.494226 58.853043,75.237496 C 58.853027,76.100676 58.625246,76.861946 58.1697,77.521306 C 57.714123,78.180676 57.070742,78.694186 56.239555,79.061826 L 56.239555,79.157726 C 57.406419,79.389516 58.331529,79.869056 59.014888,80.596346 C 59.698214,81.323656 60.039885,82.282736 60.039902,83.473576 L 60.039902,83.473576 z M 54.141572,76.136636 C 54.14156,75.840926 54.067631,75.545216 53.919785,75.249486 C 53.771916,74.953786 53.510168,74.733996 53.13454,74.590116 C 52.798852,74.462256 52.381254,74.392326 51.881744,74.380326 C 51.382215,74.368346 50.68089,74.362356 49.777766,74.362336 L 49.346181,74.362336 L 49.346181,78.138706 L 50.06549,78.138706 C 50.792782,78.138716 51.412186,78.126736 51.923704,78.102746 C 52.435202,78.078776 52.838814,77.998856 53.13454,77.862976 C 53.550129,77.679166 53.821868,77.441386 53.949756,77.149656 C 54.077622,76.857956 54.14156,76.520276 54.141572,76.136636 L 54.141572,76.136636 z M 55.268489,83.401646 C 55.268476,82.834206 55.158582,82.396626 54.938805,82.088916 C 54.719004,81.781216 54.345364,81.551436 53.817883,81.399576 C 53.458218,81.295686 52.962694,81.239736 52.331312,81.231736 C 51.699909,81.223756 51.040544,81.219756 50.353213,81.219746 L 49.346181,81.219746 L 49.346181,85.667476 L 49.681858,85.667476 C 50.976605,85.667476 51.903713,85.663476 52.463185,85.655486 C 53.022637,85.647496 53.538141,85.543596 54.009698,85.343786 C 54.489226,85.143976 54.818908,84.878236 54.998748,84.546546 C 55.178562,84.214876 55.268476,83.833236 55.268489,83.401646 L 55.268489,83.401646 z M 80.336392,80.032886 C 80.336373,81.695296 79.956738,83.183866 79.197487,84.498596 C 78.4382,85.813336 77.479122,86.822366 76.320253,87.525686 C 75.449076,88.053176 74.493995,88.420826 73.455007,88.628626 C 72.415994,88.836426 71.185178,88.940326 69.762556,88.940326 L 63.468605,88.940326 L 63.468605,71.089486 L 69.942383,71.089486 C 71.396975,71.089506 72.651767,71.211386 73.706765,71.455136 C 74.761737,71.698916 75.648883,72.044586 76.368206,72.492136 C 77.599007,73.243426 78.568075,74.256456 79.275412,75.531216 C 79.982713,76.806006 80.336373,78.306556 80.336392,80.032886 L 80.336392,80.032886 z M 75.576967,79.996926 C 75.576953,78.822066 75.363158,77.817026 74.935584,76.981816 C 74.507981,76.146636 73.830633,75.493266 72.903537,75.021706 C 72.431979,74.789946 71.950442,74.632096 71.458925,74.548156 C 70.967388,74.464256 70.226101,74.422296 69.235063,74.422276 L 68.072181,74.422276 L 68.072181,85.595546 L 69.235063,85.595546 C 70.330001,85.595546 71.133228,85.545596 71.644747,85.445686 C 72.156244,85.345786 72.655763,85.163956 73.143306,84.900206 C 73.982487,84.420676 74.597895,83.779296 74.989532,82.976056 C 75.381141,82.172836 75.576953,81.179796 75.576967,79.996926 L 75.576967,79.996926 z" id="text2306" style="font-size:24.55240059px;font-style:normal;font-variant:normal;font-weight:bold;font-stretch:normal;text-align:center;line-height:100%;text-anchor:middle;fill:#000000;fill-opacity:1;stroke:none;stroke-width:1px;stroke-linecap:butt;stroke-linejoin:miter;stroke-opacity:1;font-family:Verdana"/>
  <path d="M 52.591339,67.133556 C 52.337412,66.838156 51.263496,64.935856 50.204861,62.906216 L 48.280072,59.215966 L 50.191725,55.387046 C 52.288362,51.187616 52.77871,50.483956 53.608468,50.483956 C 54.441485,50.483956 54.799321,51.446216 54.799321,53.686286 L 54.799321,55.701346 L 60.648065,55.701346 C 64.001385,55.701346 67.088334,55.552396 67.883224,55.352236 C 69.662012,54.904336 71.212327,53.445026 71.654709,51.802146 C 72.330434,49.292696 72.13078,48.853266 63.700241,34.294466 C 62.307288,31.888956 61.167599,29.576086 61.167599,29.154746 C 61.167599,28.104786 61.639668,27.618296 63.867372,26.372496 C 65.489951,25.465096 65.893452,25.352756 66.505927,25.637896 C 66.960456,25.849506 68.08351,27.476706 69.530012,30.019526 C 70.795581,32.244286 73.372815,36.729356 75.2572,39.986356 C 77.284347,43.490106 78.835212,46.541186 79.055257,47.458426 C 79.625581,49.835816 79.305449,53.372266 78.335567,55.408656 C 77.308507,57.565106 75.231484,59.742746 73.238443,60.752696 C 70.34951,62.216626 68.714326,62.453256 61.48675,62.453256 L 54.799321,62.453256 L 54.799321,64.576486 C 54.799321,65.744266 54.715493,66.918176 54.613032,67.185176 C 54.364258,67.833476 53.166712,67.802896 52.591339,67.133556 z M 19.965603,62.164666 C 18.221913,61.737136 15.720557,60.241286 14.28531,58.767776 C 11.652415,56.064686 10.543303,52.478156 11.168871,48.690196 C 11.634955,45.867946 12.348657,44.297846 15.772875,38.561636 C 17.319287,35.971106 18.584531,33.740056 18.584531,33.603736 C 18.584531,33.467406 17.854907,32.944096 16.963145,32.440816 C 14.849288,31.247826 14.44974,30.765766 14.891171,29.940936 C 15.077622,29.592556 15.536055,29.293686 15.909911,29.276796 C 17.503292,29.204796 21.929455,29.337696 23.393809,29.501516 L 24.980584,29.679026 L 27.4603,33.353896 C 29.995443,37.110906 30.392655,38.250826 29.359364,38.803826 C 28.904662,39.047166 28.340903,38.882246 26.760302,38.043456 L 24.741892,36.972336 L 24.308404,37.666776 C 23.058936,39.668376 19.623683,45.605566 18.997499,46.845666 C 17.936139,48.947606 18.000828,51.237376 19.167061,52.847306 C 20.828863,55.141356 21.258975,55.217376 33.571337,55.393116 C 46.279227,55.574496 45.285266,55.244806 45.285266,59.278616 C 45.285266,61.474976 45.205108,61.860746 44.691632,62.135546 C 44.007571,62.501646 21.44831,62.528216 19.965603,62.164666 z M 26.534463,27.220446 C 24.491863,26.020766 24.108821,25.638436 24.108821,24.799316 C 24.108821,24.386536 26.626298,19.675706 29.706096,14.325396 C 35.787434,3.7607362 36.804551,2.4239062 39.921122,0.89944618 C 41.594877,0.080736183 42.039868,0.0018261831 44.992794,4.6183136e-05 C 48.07626,-0.0018238169 48.328588,0.048226183 50.314736,1.0555662 C 53.360292,2.6002362 55.307767,4.9048462 58.635633,10.902396 C 60.154813,13.640306 61.535885,16.065426 61.704683,16.291576 C 61.950938,16.621506 62.342355,16.492626 63.685344,15.639416 C 66.126699,14.088416 67.451191,14.310166 66.962012,16.188016 C 66.749054,17.005506 62.625592,23.498586 62.121577,23.810086 C 61.623504,24.117916 53.468222,24.502966 52.688437,24.255466 C 52.256788,24.118466 52.037176,23.793726 52.037176,23.292426 C 52.037176,22.701016 52.435683,22.287256 53.864731,21.394956 C 54.869884,20.767326 55.698528,20.130706 55.706161,19.980236 C 55.72486,19.611526 50.629065,10.699396 49.65772,9.4020062 C 48.788061,8.2404462 46.818944,7.2238362 45.438718,7.2238362 C 44.199384,7.2238362 42.245854,8.1637662 41.241593,9.2432562 C 40.789948,9.7287462 38.196171,13.992956 35.477644,18.719286 C 32.759113,23.445626 30.305573,27.485266 30.025329,27.696266 C 29.240441,28.287206 28.081896,28.129296 26.534463,27.220446 z" id="path2324" sodipodi:nodetypes="ccccscccssssssssssscccsccssssssscccscccsssssccsssssssssssssssssssc" style="fill:#000000"/>
</svg>

<svg xmlns="http://www.w3.org/2000/svg" viewBox="0 0 89 89"><path d="m52.907 42.776h-2.434v4.16h-4.4v-4.16h-8.644v-3.381l8.356-10.358h4.687v10.478h2.434v3.261m-6.833-3.261v-6.45l-5.191 6.45h5.191"/><path d="m24.734 76.72c0 .799-.14 1.58-.42 2.344-.28.763-.679 1.405-1.199 1.924-.711.703-1.505 1.235-2.38 1.594-.875.36-1.964.539-3.267.539h-2.865v5.814h-4.604v-17.851h7.577c1.135 0 2.092.098 2.871.294.779.196 1.469.49 2.068.881.719.472 1.269 1.075 1.648 1.81.38.735.569 1.618.569 2.649m-4.759.108c0-.503-.136-.937-.408-1.301-.272-.364-.587-.617-.947-.761-.48-.192-.947-.298-1.403-.318-.456-.02-1.063-.03-1.822-.03h-.791v5.347h1.319c.783 0 1.429-.048 1.936-.144.508-.096.933-.288 1.277-.575.296-.256.509-.561.641-.917.132-.356.198-.789.198-1.301m20.92 12.11h-12.912v-17.851h12.912v3.453h-8.332v3.081h7.733v3.453h-7.733v4.412h8.332v3.453m19.15-5.467c0 .863-.174 1.634-.521 2.314-.348.679-.825 1.243-1.433 1.69-.703.527-1.477.903-2.32 1.127-.843.224-1.912.336-3.207.336h-7.793v-17.851h6.929c1.439 0 2.492.048 3.159.144.667.096 1.329.308 1.984.635.679.344 1.185.805 1.517 1.385.332.579.498 1.241.498 1.984 0 .863-.228 1.624-.683 2.284-.456.659-1.099 1.173-1.93 1.541v.096c1.167.232 2.092.711 2.775 1.439.683.727 1.025 1.686 1.025 2.877m-5.898-7.337c0-.296-.074-.591-.222-.887-.148-.296-.41-.515-.785-.659-.336-.128-.753-.198-1.253-.21-.5-.012-1.201-.018-2.104-.018h-.432v3.776h.719c.727 0 1.347-.012 1.858-.036.511-.024.915-.104 1.211-.24.416-.184.687-.422.815-.713.128-.292.192-.629.192-1.013m1.127 7.265c0-.567-.11-1.01-.33-1.313-.22-.308-.593-.537-1.121-.689-.36-.104-.855-.16-1.487-.168-.631-.008-1.291-.012-1.978-.012h-1.01v4.448h.336c1.295 0 2.222-.004 2.781-.012.559-.008 1.075-.112 1.547-.312.48-.2.809-.466.989-.797.18-.332.27-.713.27-1.145m25.07-3.369c0 1.662-.38 3.151-1.139 4.466-.759 1.315-1.718 2.324-2.877 3.03-.871.527-1.826.895-2.865 1.103-1.039.208-2.27.312-3.692.312h-6.294v-17.851h6.474c1.455 0 2.709.122 3.764.366 1.055.244 1.942.589 2.661 1.037 1.231.751 2.2 1.764 2.907 3.039.707 1.275 1.061 2.775 1.061 4.502m-4.759-.036c0-1.175-.214-2.18-.641-3.02-.428-.835-1.105-1.489-2.032-1.96-.472-.232-.953-.39-1.445-.474-.492-.084-1.233-.126-2.224-.126h-1.163v11.173h1.163c1.095 0 1.898-.05 2.41-.15.511-.1 1.011-.282 1.499-.545.839-.48 1.455-1.121 1.846-1.924.392-.803.587-1.796.587-2.979"/><path d="m52.591 67.13c-.254-.295-1.328-2.198-2.386-4.227l-1.925-3.69 1.912-3.829c2.097-4.199 2.587-4.903 3.417-4.903.833 0 1.191.962 1.191 3.202v2.02h5.849c3.353 0 6.44-.149 7.235-.349 1.779-.448 3.329-1.907 3.771-3.55.676-2.509.476-2.949-7.954-17.508-1.393-2.406-2.533-4.718-2.533-5.14 0-1.05.472-1.536 2.7-2.782 1.623-.907 2.026-1.02 2.639-.735.455.212 1.578 1.839 3.02 4.382 1.266 2.225 3.843 6.71 5.727 9.967 2.027 3.504 3.578 6.555 3.798 7.472.57 2.377.25 5.914-.72 7.95-1.027 2.156-3.104 4.334-5.097 5.344-2.889 1.464-4.524 1.701-11.752 1.701h-6.687v2.123c0 1.168-.084 2.342-.186 2.609-.249.648-1.446.618-2.02-.052m-32.626-4.969c-1.744-.428-4.245-1.923-5.68-3.397-2.633-2.703-3.742-6.29-3.116-10.08.466-2.822 1.18-4.392 4.604-10.129 1.546-2.591 2.812-4.822 2.812-4.958 0-.136-.73-.66-1.621-1.163-2.114-1.193-2.513-1.675-2.072-2.5.186-.348.645-.647 1.019-.664 1.593-.072 6.02.061 7.484.225l1.587.178 2.48 3.675c2.535 3.757 2.932 4.897 1.899 5.45-.455.243-1.018.078-2.599-.76l-2.02-1.071-.433.694c-1.249 2-4.685 7.939-5.311 9.179-1.061 2.102-.997 4.392.17 6 1.662 2.294 2.092 2.37 14.404 2.546 12.708.181 11.714-.148 11.714 3.886 0 2.196-.08 2.582-.594 2.857-.684.366-23.24.393-24.726.029m6.569-34.944c-2.043-1.2-2.426-1.582-2.426-2.421 0-.413 2.517-5.124 5.597-10.474 6.081-10.565 7.098-11.901 10.215-13.426 1.674-.819 2.119-.898 5.072-.899 3.083-.002 3.336.048 5.322 1.056 3.046 1.545 4.993 3.849 8.321 9.847 1.519 2.738 2.9 5.163 3.069 5.389.246.33.638.201 1.981-.652 2.441-1.551 3.766-1.329 3.277.549-.213.817-4.336 7.311-4.84 7.622-.498.308-8.653.693-9.433.445-.432-.137-.651-.462-.651-.963 0-.591.399-1.01 1.828-1.897 1.01-.628 1.834-1.264 1.841-1.415.019-.369-5.077-9.281-6.05-10.578-.87-1.162-2.839-2.178-4.219-2.178-1.239 0-3.193.94-4.197 2.02-.452.485-3.045 4.75-5.764 9.476-2.719 4.726-5.172 8.766-5.452 8.977-.785.591-1.943.433-3.491-.476"/></svg>
